X:1
T:Mike Cassidy  "CYMRU"
M:6/8
L:1/8
Q:80
C:
S:Jig
K:HP
|: e | \
{g}A3{GdG}B3 | \
{g}c2{GdG}f{g}ec{d}B | \
{g}c2{gAd}A{g}A{d}c{e}B |
{g}c2{gAd}A{gBd}B2{e}G | | \
{g}A3{GdG}B3 | \
{g}c2{GdG}f{g}ec{d}B |
{g}c2{gAd}A{g}A{d}c{e}B | \
{g}c2{gAd}A{GAG}A3 :: \
e |
agf{gfg}f2e | \
{g}f/2a3/2f{g}ec{d}B | \
{g}c2{GdG}f{gfg}f2e |
{g}c2{GdG}f{gfg}f2e | | \
agf|1 {gfg}f2e|2 gfe | \
{g}f/2a3/2f{g}ec{d}B |
{g}c2{gAd}A{g}A{d}c{e}B | \
{g}c2{gAd}A{GAG}A3 :: \
e |
{g}A{d}ce{g}A{d}ce | \
{g}f/2a3/2f{g}ec{d}B | \
{g}c2{GdG}f{gfg}f2e |
{g}c2{GdG}f{gfg}f2e | | \
{g}A{d}ce{g}A{d}ce | \
{g}f/2a3/2f{g}ec{d}B |
{g}c2{gAd}A{g}A{d}c{e}B | \
{g}c2{gAd}A{GAG}A3 :: \
e |
agae{g}ce | \
{g}f/2a3/2f{g}ec{d}B | \
{g}c2{GdG}f{gfg}f2e |
{g}c2{GdG}f{gfg}f2e | | \
agae{g}ce | \
{g}f/2a3/2f|1 {g}ec{d}B|2 {g}ec{d}A |
{g}c2{gAd}A{g}A{d}c{e}B | \
{g}c2{gAd}A{GAG}A3 :|
